X:16
T: Keresztúri saláta
O: Oroszhegy (Udvarhely), ?, 1902
Q: "Tempo guisto"
L:1/4
M:2/4
K: F
f/d/d/d/ | g/d/(d/c/) | 
d/B/B/B/ | A/d/ (c//B//A//G//) | 
{A/}B/A/G/G/ | G/A/ {G/}F | 
F/G/A/A/ | A/d/ (c//B//A//G//) | B G/G/ | G/A/ G/ z/ | 

